X:1
T:[ID 2-54b]
T:[ID 2-54b]
T:Bezeichnung standardisiert: Menuett Men\"uet 14.
T:Urheber unbekannt Datum in der hier transkribierten schriftlichen Quelle: 1767
C:Urheber unbekannt
C:Datum in der hier transkribierten schriftlichen Quelle: 1767
L:1/8
M:3/4
K:D
V:1 treble 
V:1
 d2 d2 d2 | (df)(fe)(ed) | f2 f2 f2 | (fa)(ag)(gf) | a2 a2 a2 | a2 bc'd'a | g2 g2 (3fga | e6 :: %8
 A2 A2 A2 | (Ae)(ec)(cA) | (df)(fd)(dA) | (Bg)(ge)(ec) | d2 d'2 d'2 | d'a a4 | (3bag f2 e2 | d6 :| %16

